img/icons/user/infoPanel/Trending_Up.svg

<svg width="53" height="52" viewBox="0 0 53 52" fill="none" xmlns="http://www.w3.org/2000/svg">
<path d="M44.3297 15.1667L31.6631 28.0312C31.4355 28.2624 31.3206 28.378 31.2187 28.4692C29.5735 29.9418 27.0845 29.9418 25.4392 28.4692C25.3374 28.378 25.2225 28.2624 24.9949 28.0312C24.7673 27.8 24.6535 27.6844 24.5516 27.5933C22.9063 26.1206 20.4174 26.1206 18.7721 27.5933C18.6702 27.6844 18.5564 27.8001 18.3288 28.0312L9.66211 36.8333M44.3297 15.1667L44.3288 28.1667M44.3297 15.1667H31.3288" stroke="#F56311" stroke-width="2" stroke-linecap="round" stroke-linejoin="round"/>
</svg>

<svg width="53" height="52" fill="none" xmlns="http://www.w3.org/2000/svg"><path d="M44.33 15.167 31.663 28.03c-.227.231-.342.347-.444.438a4.333 4.333 0 0 1-5.78 0 10.82 10.82 0 0 1-.444-.438c-.228-.231-.341-.347-.443-.438a4.332 4.332 0 0 0-5.78 0c-.102.091-.216.207-.443.438l-8.667 8.802M44.33 15.167l-.001 13m0-13h-13" stroke="#F56311" stroke-width="2" stroke-linecap="round" stroke-linejoin="round"/></svg>
